public/images/placeofinterrests/magic-city.svg

<?xml version="1.0" encoding="UTF-8" standalone="no"?>
<svg width="134px" height="48px" viewBox="0 0 134 48" version="1.1" xmlns="http://www.w3.org/2000/svg" xmlns:xlink="http://www.w3.org/1999/xlink">
    <!-- Generator: Sketch 42 (36781) - http://www.bohemiancoding.com/sketch -->
    <title>Miami</title>
    <desc>Created with Sketch.</desc>
    <defs></defs>
    <g id="Page-1" stroke="none" stroke-width="1" fill="none" fill-rule="evenodd">
        <g id="Miami">
            <polygon id="Path-5" fill="#FFFFFF" points="0 0 8 44 128 48 134 3"></polygon>
            <path d="M16.3740008,14.228 L16.3740008,35 L20.1300008,35 L20.1300008,20.06 L24.8700008,26.372 L24.8700008,26.492 L24.9599852,26.492 L25.0140008,26.564 L25.1100008,26.492 L28.3980008,26.492 L28.4940008,26.564 L28.5480164,26.492 L28.6380008,26.492 L28.6380008,26.372 L33.3780008,20.06 L33.3780008,35 L37.1460008,35 L37.1460008,14.228 L33.3780008,14.228 L33.3780008,14.3420156 L26.7540008,22.628 L20.1300008,14.3449922 L20.1300008,14.228 L16.3740008,14.228 Z M47.2389928,20.1340156 L45.2199849,26.1939844 L49.2610084,26.1939844 L47.2389928,20.1340156 Z M45.4240162,14.2300156 L45.5680162,14.2780156 L48.9040162,14.2780156 L49.0480162,14.2300156 L49.0660006,14.2780156 L49.1140006,14.2780156 L49.1140006,14.4190078 L55.8669928,34.69 L55.9180006,34.69 L55.9180006,34.84 L55.9660006,34.987 L55.9180006,35.002 L55.9180006,35.05 L55.7709928,35.05 L55.6240162,35.098 L55.6090084,35.05 L52.3719849,35.05 L52.2279849,35.098 L52.2130084,35.05 L52.1620006,35.05 L52.1620006,34.897 L50.5120162,29.9500161 L43.9690084,29.9500161 L42.3220006,34.888 L42.3220006,35.05 L42.2709928,35.05 L42.2560162,35.098 L42.1120167,35.05 L38.8660006,35.05 L38.8480167,35.098 L38.7040167,35.05 L38.5540006,35.05 L38.5540006,34.999 L38.5060006,34.984 L38.5540006,34.831 L38.5540006,34.69 L38.6020006,34.69 L45.3580006,14.428 L45.3580006,14.2780156 L45.4090084,14.2780156 L45.4240162,14.2300156 Z M66.8180003,14.216 L66.8180003,14.2190078 C61.1641126,14.3156484 56.6060003,18.931168 56.6060003,24.608 C56.6060003,30.2691841 61.1577445,34.8820625 66.8060003,34.985 L66.8060003,34.988 L70.5740003,34.988 L70.5740003,26.372 L66.8060003,26.372 L66.8060003,31.2259839 C63.2361761,31.1244795 60.3740003,28.2024634 60.3740003,24.6079995 C60.3740003,20.9494077 63.3394085,17.9839995 66.9980003,17.9839995 L70.5740003,17.9839995 L70.5740003,14.2159995 L66.9980003,14.2159995 L66.8180003,14.216 Z M73.5540001,14.208 L73.5540001,34.968 L77.3220001,34.968 L77.3220001,14.208 L73.5540001,14.208 Z M89.7379999,14.228 L89.7379999,14.2310078 C84.0841122,14.3276484 79.5259999,18.943168 79.5259999,24.62 C79.5259999,30.2851201 84.0841122,34.9003437 89.7379999,34.997 L89.7379999,35 L93.4939999,35 L93.4939999,31.244 L89.9179999,31.244 C86.2594081,31.244 83.2939999,28.2785918 83.2939999,24.62 C83.2939999,20.9614082 86.2594081,17.996 89.9179999,17.996 L93.4939999,17.996 L93.4939999,14.228 L89.7379999,14.228 Z M93.819984,23.2 L93.819984,26.968 L104.392015,26.968 L104.392015,23.2 L93.819984,23.2 Z M118.369999,14.228 L118.369999,14.2310078 C112.716112,14.3276484 108.157999,18.943168 108.157999,24.62 C108.157999,30.2851201 112.716112,34.9003437 118.369999,34.997 L118.369999,35 L122.125999,35 L122.125999,31.244 L118.549999,31.244 C114.891408,31.244 111.925999,28.2785918 111.925999,24.62 C111.925999,20.9614082 114.891408,17.996 118.549999,17.996 L122.125999,17.996 L122.125999,14.228 L118.369999,14.228 Z" id="Magic-C" fill="#18252D"></path>
        </g>
    </g>
</svg>

<svg width="134" height="48" viewBox="0 0 134 48" xmlns="http://www.w3.org/2000/svg"><title>Miami</title><g fill="none" fill-rule="evenodd"><path fill="#FFF" d="M0 0l8 44 120 4 6-45z"/><path d="M16.374 14.228V35h3.756V20.06l4.74 6.312v.12h.09l.054.072.096-.072h3.288l.096.072.054-.072h.09v-.12l4.74-6.312V35h3.768V14.228h-3.768v.114l-6.624 8.286-6.624-8.283v-.117h-3.756zm30.865 5.906l-2.019 6.06h4.041l-2.022-6.06zm-1.815-5.904l.144.048h3.336l.144-.048.018.048h.048v.141l6.753 20.271h.051v.15l.048.147-.048.015v.048h-.147l-.147.048-.015-.048h-3.237l-.144.048-.015-.048h-.051v-.153l-1.65-4.947h-6.543l-1.647 4.938v.162h-.051l-.015.048-.144-.048h-3.246l-.018.048-.144-.048h-.15v-.051l-.048-.015.048-.153v-.141h.048l6.756-20.262v-.15h.051l.015-.048zm21.394-.014v.003c-5.654.097-10.212 4.712-10.212 10.389 0 5.661 4.552 10.274 10.2 10.377v.003h3.768v-8.616h-3.768v4.854a6.62 6.62 0 0 1-6.432-6.618 6.624 6.624 0 0 1 6.624-6.624h3.576v-3.768H66.818zm6.736-.008v20.76h3.768v-20.76h-3.768zm16.184.02v.003c-5.654.097-10.212 4.712-10.212 10.389 0 5.665 4.558 10.28 10.212 10.377V35h3.756v-3.756h-3.576a6.624 6.624 0 1 1 0-13.248h3.576v-3.768h-3.756zM93.82 23.2v3.768h10.572V23.2H93.82zm24.55-8.972v.003c-5.654.097-10.212 4.712-10.212 10.389 0 5.665 4.558 10.28 10.212 10.377V35h3.756v-3.756h-3.576a6.624 6.624 0 1 1 0-13.248h3.576v-3.768h-3.756z" fill="#18252D"/></g></svg>
